third_party/noto/noto_2/emoji_u1f397.svg

<svg enable-background="new 0 0 128 128" viewBox="0 0 128 128" xmlns="http://www.w3.org/2000/svg"><path d="M94,25.16c-0.65-7.67-5.28-13.11-11.19-16.27C77.39,6,70.49,4.58,63.96,4.47 C57.42,4.58,50.42,6,45,8.9c-5.91,3.16-10.64,8.6-11.29,16.27c-0.6,7.14-0.96,12.03,0.42,19.34c-0.8-4.82,1.81-11.83,3.49-14.23 c5.9-8.43,17-10.3,26.33-10.42c9.33,0.12,20.33,1.99,26.23,10.42c1.68,2.4,4.24,9.41,3.44,14.23C95.01,37.19,94.6,32.31,94,25.16z" fill="#FBC02D"/><linearGradient id="b" x1="70.338" x2="32.944" y1="64.497" y2="98.989" gradientUnits="userSpaceOnUse"><stop stop-color="#FDD835" offset=".5949"/><stop stop-color="#FFEE58" offset=".8606"/></linearGradient><path d="M93.22,21.22c-2.32,15.83-17.7,38.07-35.33,52.24C43.33,85.16,8,99.07,8,99.07v25 c18-4.15,35.33-13.9,49.89-25.61C75.52,84.29,90.34,65.81,94.1,41.94C95.62,32.28,93.22,21.22,93.22,21.22z" fill="url(#b)"/><g opacity=".2"><path d="m63.96 7.47c6.47 0.12 12.82 1.6 17.44 4.07 3.3 1.77 8.95 5.92 9.61 13.87 0.03 0.4 0.07 0.86 0.1 1.24-5.56-6.37-14.46-9.65-27.11-9.65h-0.04s-0.03 0-0.04 0c-12.61 0-21.79 3.41-27.32 9.79 0.03-0.42 0.07-0.9 0.11-1.34 0.66-7.91 6.37-12.11 9.71-13.89 4.61-2.47 11-3.97 17.54-4.09m27.54 28.75c-0.06 1.68-0.21 3.46-0.49 5.25-3.15 19.99-14.98 38.38-35.23 54.65-10.26 8.25-25.78 18.87-44.78 24.06v-19.15c8-3.09 35.59-14.82 48.54-25.22 13.4-10.79 25.52-25.9 31.96-39.59m-27.54-31.75c-6.54 0.11-13.54 1.53-18.96 4.43-5.91 3.16-10.65 8.6-11.29 16.27-0.6 7.14-0.96 12.03 0.42 19.34-0.8-4.82 1.81-11.83 3.49-14.23 5.9-8.43 17-10.3 26.33-10.43 9.33 0.12 20.33 1.99 26.23 10.43 0.12 0.17 0.24 0.36 0.37 0.58-5.59 14.37-18.62 31.14-32.89 42.61-14.56 11.69-49.66 25.52-49.66 25.52v25.05c18-4.15 35.1-13.88 49.66-25.58 17.63-14.17 32.56-32.65 36.32-56.52 0.76-4.82 0.66-9.98 0.25-13.95-0.07-0.91-0.15-1.85-0.24-2.83-0.65-7.67-5.28-13.11-11.19-16.27-5.41-2.89-12.31-4.31-18.84-4.42z" fill="#424242"/></g><linearGradient id="a" x1="67.627" x2="82.433" y1="37.513" y2="91.802" gradientUnits="userSpaceOnUse"><stop stop-color="#FDD835" offset=".2168"/><stop stop-color="#FFEE58" offset=".8703"/></linearGradient><path d="m34.53 21.22c2.32 15.83 17.83 38.07 35.46 52.24 14.55 11.7 50.01 25.61 50.01 25.61v25c-18-4.15-35.46-13.9-50.02-25.61-17.62-14.17-32.51-32.65-36.27-56.52-1.52-9.66 0.82-20.72 0.82-20.72z" fill="url(#a)"/><g opacity=".2"><path d="m36.1 35.98c6.31 13.75 18.13 28.87 31.75 39.82 12.96 10.42 41.46 22.27 49.19 25.39l-0.12 19.16c-15.03-4.19-30.97-12.7-45.31-24.22-20.1-16.16-31.89-34.54-35.06-54.65-0.29-1.81-0.42-3.67-0.45-5.5m-1.57-14.76s-2.46 11.06-0.94 20.72c3.76 23.87 18.52 42.35 36.14 56.52 14.56 11.71 32.44 21.6 50.17 25.75l0.15-25.05s-35.77-13.99-50.32-25.7c-17.63-14.17-32.88-36.41-35.2-52.24z" fill="#424242"/></g></svg>

<svg width="128" height="128" style="enable-background:new 0 0 128 128;" xmlns="http://www.w3.org/2000/svg" xmlns:xlink="http://www.w3.org/1999/xlink">
  <g id="图层_3">
    <path d="M94,25.16c-0.65-7.67-5.28-13.11-11.19-16.27C77.39,6,70.49,4.58,63.96,4.47 C57.42,4.58,50.42,6,45,8.9c-5.91,3.16-10.64,8.6-11.29,16.27c-0.6,7.14-0.96,12.03,0.42,19.34c-0.8-4.82,1.81-11.83,3.49-14.23 c5.9-8.43,17-10.3,26.33-10.42c9.33,0.12,20.33,1.99,26.23,10.42c1.68,2.4,4.24,9.41,3.44,14.23C95.01,37.19,94.6,32.31,94,25.16z" style="fill:#FBC02D;"/>
    <g>
      <linearGradient id="SVGID_1_" gradientUnits="userSpaceOnUse" x1="70.3377" x2="32.9445" y1="64.4972" y2="98.9891">
        <stop offset="0.5949" style="stop-color:#FDD835"/>
        <stop offset="0.8606" style="stop-color:#FFEE58"/>
      </linearGradient>
      <path d="M93.22,21.22c-2.32,15.83-17.7,38.07-35.33,52.24C43.33,85.16,8,99.07,8,99.07v25 c18-4.15,35.33-13.9,49.89-25.61C75.52,84.29,90.34,65.81,94.1,41.94C95.62,32.28,93.22,21.22,93.22,21.22z" style="fill:url(#SVGID_1_);"/>
    </g>
    <g style="opacity:0.2;">
      <path d="M63.96,7.47c6.47,0.12,12.82,1.6,17.44,4.07c3.3,1.77,8.95,5.92,9.61,13.87 c0.03,0.4,0.07,0.86,0.1,1.24C85.55,20.28,76.65,17,64,17c-0.01,0-0.03,0-0.04,0s-0.03,0-0.04,0c-12.61,0-21.79,3.41-27.32,9.79 c0.03-0.42,0.07-0.9,0.11-1.34c0.66-7.91,6.37-12.11,9.71-13.89C51.03,9.09,57.42,7.59,63.96,7.47 M91.5,36.22 c-0.06,1.68-0.21,3.46-0.49,5.25c-3.15,19.99-14.98,38.38-35.23,54.65C45.52,104.37,30,114.99,11,120.18v-19.15 c8-3.09,35.59-14.82,48.54-25.22C72.94,65.02,85.06,49.91,91.5,36.22 M63.96,4.47C57.42,4.58,50.42,6,45,8.9 c-5.91,3.16-10.65,8.6-11.29,16.27c-0.6,7.14-0.96,12.03,0.42,19.34c-0.8-4.82,1.81-11.83,3.49-14.23 c5.9-8.43,17-10.3,26.33-10.43c9.33,0.12,20.33,1.99,26.23,10.43c0.12,0.17,0.24,0.36,0.37,0.58 c-5.59,14.37-18.62,31.14-32.89,42.61C43.1,85.16,8,98.99,8,98.99v25.05c18-4.15,35.1-13.88,49.66-25.58 c17.63-14.17,32.56-32.65,36.32-56.52c0.76-4.82,0.66-9.98,0.25-13.95c-0.07-0.91-0.15-1.85-0.24-2.83 c-0.65-7.67-5.28-13.11-11.19-16.27C77.39,6,70.49,4.58,63.96,4.47L63.96,4.47z" style="fill:#424242;"/>
    </g>
    <g>
      <linearGradient id="SVGID_3_" gradientUnits="userSpaceOnUse" x1="67.6271" x2="82.4333" y1="37.5127" y2="91.802">
        <stop offset="0.2168" style="stop-color:#FDD835"/>
        <stop offset="0.8703" style="stop-color:#FFEE58"/>
      </linearGradient>
      <path d="M34.53,21.22c2.32,15.83,17.83,38.07,35.46,52.24C84.54,85.16,120,99.07,120,99.07v25 c-18-4.15-35.46-13.9-50.02-25.61C52.36,84.29,37.47,65.81,33.71,41.94C32.19,32.28,34.53,21.22,34.53,21.22z" style="fill:url(#SVGID_3_);"/>
    </g>
    <g style="opacity:0.2;">
      <path d="M36.1,35.98c6.31,13.75,18.13,28.87,31.75,39.82c12.96,10.42,41.46,22.27,49.19,25.39 l-0.12,19.16c-15.03-4.19-30.97-12.7-45.31-24.22c-20.1-16.16-31.89-34.54-35.06-54.65C36.26,39.67,36.13,37.81,36.1,35.98 M34.53,21.22c0,0-2.46,11.06-0.94,20.72c3.76,23.87,18.52,42.35,36.14,56.52c14.56,11.71,32.44,21.6,50.17,25.75l0.15-25.05 c0,0-35.77-13.99-50.32-25.7C52.1,59.29,36.85,37.05,34.53,21.22L34.53,21.22z" style="fill:#424242;"/>
    </g>
  </g>
  <g id="Layer_2_x5F_复制" style="display:none;">
    <g style="display:inline;opacity:0.3;">
      <g style="opacity:0.6;">
        <circle cx="64" cy="64" r="28" style="opacity:0.61;fill:none;stroke:#000000;stroke-width:0.2625;stroke-miterlimit:10;"/>
        <line style="opacity:0.61;fill:none;stroke:#000000;stroke-width:0.25;stroke-miterlimit:10;" x1="84" x2="84" y1="0" y2="128"/>
        <line style="opacity:0.61;fill:none;stroke:#000000;stroke-width:0.25;stroke-miterlimit:10;" x1="44" x2="44" y1="0" y2="128"/>
        <line style="opacity:0.61;fill:none;stroke:#000000;stroke-width:0.25;stroke-miterlimit:10;" x1="64" x2="64" y1="0" y2="128"/>
        <line style="opacity:0.61;fill:none;stroke:#000000;stroke-width:0.25;stroke-miterlimit:10;" x1="128" x2="0" y1="64" y2="64"/>
        <line style="opacity:0.61;fill:none;stroke:#000000;stroke-width:0.25;stroke-miterlimit:10;" x1="128" x2="0" y1="44" y2="44"/>
        <line style="opacity:0.61;fill:none;stroke:#000000;stroke-width:0.25;stroke-miterlimit:10;" x1="128" x2="0" y1="83.75" y2="83.75"/>
        <line style="opacity:0.61;fill:none;stroke:#000000;stroke-width:0.25;stroke-miterlimit:10;" x1="128" x2="0" y1="128" y2="0"/>
        <line style="opacity:0.61;fill:none;stroke:#000000;stroke-width:0.25;stroke-miterlimit:10;" x1="0" x2="128" y1="128" y2="0"/>
        <g style="opacity:0.61;">
          <path d="M64,4.26c32.94,0,59.74,26.8,59.74,59.74S96.94,123.74,64,123.74S4.26,96.94,4.26,64S31.06,4.26,64,4.26 M64,4 C30.86,4,4,30.86,4,64c0,33.14,26.86,60,60,60c33.14,0,60-26.86,60-60C124,30.86,97.14,4,64,4L64,4z"/>
        </g>
        <path d="M107.97,115.97H20.03 c-4.42,0-8.03-3.61-8.03-8.03V20.03c0-4.42,3.61-8.03,8.03-8.03h87.94c4.42,0,8.03,3.61,8.03,8.03v87.91 C116,112.36,112.39,115.97,107.97,115.97z" style="opacity:0.61;fill:none;stroke:#000000;stroke-width:0.2578;stroke-miterlimit:10;"/>
        <path d="M99.75,124H28 c-4.4,0-8-3.6-8-8V12c0-4.4,3.6-8,8-8h71.75c4.4,0,8,3.6,8,8v104C107.75,120.4,104.15,124,99.75,124z" style="opacity:0.61;fill:none;stroke:#000000;stroke-width:0.2567;stroke-miterlimit:10;"/>
        <path d="M113.77,108H14.23 C8.6,108,4,103.4,4,97.77V30.28c0-5.63,4.6-10.23,10.23-10.23h99.54c5.63,0,10.23,4.6,10.23,10.23v67.48 C124,103.4,119.4,108,113.77,108z" style="opacity:0.61;fill:none;stroke:#000000;stroke-width:0.2627;stroke-miterlimit:10;"/>
      </g>
      <g>
        <g style="opacity:0.2;">
          <defs>
            <rect id="SVGID_2_" height="128" style="opacity:0.2;" width="128"/>
          </defs>
          <clipPath id="SVGID_4_">
            <use style="overflow:visible;" xlink:href="#SVGID_2_"/>
          </clipPath>
          <g style="clip-path:url(#SVGID_4_);">
            <g>
              <line style="fill:none;stroke:#000000;stroke-width:0.25;stroke-miterlimit:10;" x1="-28" x2="-28" y1="160" y2="-32"/>
              <line style="fill:none;stroke:#000000;stroke-width:0.25;stroke-miterlimit:10;" x1="-24" x2="-24" y1="160" y2="-32"/>
              <line style="fill:none;stroke:#000000;stroke-width:0.25;stroke-miterlimit:10;" x1="-20" x2="-20" y1="160" y2="-32"/>
              <line style="fill:none;stroke:#000000;stroke-width:0.25;stroke-miterlimit:10;" x1="-16" x2="-16" y1="160" y2="-32"/>
              <line style="fill:none;stroke:#000000;stroke-width:0.25;stroke-miterlimit:10;" x1="-12" x2="-12" y1="160" y2="-32"/>
              <line style="fill:none;stroke:#000000;stroke-width:0.25;stroke-miterlimit:10;" x1="-8" x2="-8" y1="160" y2="-32"/>
              <line style="fill:none;stroke:#000000;stroke-width:0.25;stroke-miterlimit:10;" x1="-4" x2="-4" y1="160" y2="-32"/>
              <line style="fill:none;stroke:#000000;stroke-width:0.25;stroke-miterlimit:10;" x1="0" x2="0" y1="160" y2="-32"/>
              <line style="fill:none;stroke:#000000;stroke-width:0.25;stroke-miterlimit:10;" x1="4" x2="4" y1="160" y2="-32"/>
              <line style="fill:none;stroke:#000000;stroke-width:0.25;stroke-miterlimit:10;" x1="8" x2="8" y1="160" y2="-32"/>
              <line style="fill:none;stroke:#000000;stroke-width:0.25;stroke-miterlimit:10;" x1="12" x2="12" y1="160" y2="-32"/>
              <line style="fill:none;stroke:#000000;stroke-width:0.25;stroke-miterlimit:10;" x1="16" x2="16" y1="160" y2="-32"/>
              <line style="fill:none;stroke:#000000;stroke-width:0.25;stroke-miterlimit:10;" x1="20" x2="20" y1="160" y2="-32"/>
              <line style="fill:none;stroke:#000000;stroke-width:0.25;stroke-miterlimit:10;" x1="24" x2="24" y1="160" y2="-32"/>
              <line style="fill:none;stroke:#000000;stroke-width:0.25;stroke-miterlimit:10;" x1="28" x2="28" y1="160" y2="-32"/>
              <line style="fill:none;stroke:#000000;stroke-width:0.25;stroke-miterlimit:10;" x1="32" x2="32" y1="160" y2="-32"/>
              <line style="fill:none;stroke:#000000;stroke-width:0.25;stroke-miterlimit:10;" x1="36" x2="36" y1="160" y2="-32"/>
              <line style="fill:none;stroke:#000000;stroke-width:0.25;stroke-miterlimit:10;" x1="40" x2="40" y1="160" y2="-32"/>
              <line style="fill:none;stroke:#000000;stroke-width:0.25;stroke-miterlimit:10;" x1="44" x2="44" y1="160" y2="-32"/>
              <line style="fill:none;stroke:#000000;stroke-width:0.25;stroke-miterlimit:10;" x1="48" x2="48" y1="160" y2="-32"/>
              <line style="fill:none;stroke:#000000;stroke-width:0.25;stroke-miterlimit:10;" x1="52" x2="52" y1="160" y2="-32"/>
              <line style="fill:none;stroke:#000000;stroke-width:0.25;stroke-miterlimit:10;" x1="56" x2="56" y1="160" y2="-32"/>
              <line style="fill:none;stroke:#000000;stroke-width:0.25;stroke-miterlimit:10;" x1="60" x2="60" y1="160" y2="-32"/>
              <line style="fill:none;stroke:#000000;stroke-width:0.25;stroke-miterlimit:10;" x1="64" x2="64" y1="160" y2="-32"/>
              <line style="fill:none;stroke:#000000;stroke-width:0.25;stroke-miterlimit:10;" x1="68" x2="68" y1="160" y2="-32"/>
              <line style="fill:none;stroke:#000000;stroke-width:0.25;stroke-miterlimit:10;" x1="72" x2="72" y1="160" y2="-32"/>
              <line style="fill:none;stroke:#000000;stroke-width:0.25;stroke-miterlimit:10;" x1="76" x2="76" y1="160" y2="-32"/>
              <line style="fill:none;stroke:#000000;stroke-width:0.25;stroke-miterlimit:10;" x1="80" x2="80" y1="160" y2="-32"/>
              <line style="fill:none;stroke:#000000;stroke-width:0.25;stroke-miterlimit:10;" x1="84" x2="84" y1="160" y2="-32"/>
              <line style="fill:none;stroke:#000000;stroke-width:0.25;stroke-miterlimit:10;" x1="88" x2="88" y1="160" y2="-32"/>
              <line style="fill:none;stroke:#000000;stroke-width:0.25;stroke-miterlimit:10;" x1="92" x2="92" y1="160" y2="-32"/>
              <line style="fill:none;stroke:#000000;stroke-width:0.25;stroke-miterlimit:10;" x1="96" x2="96" y1="160" y2="-32"/>
              <line style="fill:none;stroke:#000000;stroke-width:0.25;stroke-miterlimit:10;" x1="100" x2="100" y1="160" y2="-32"/>
              <line style="fill:none;stroke:#000000;stroke-width:0.25;stroke-miterlimit:10;" x1="104" x2="104" y1="160" y2="-32"/>
              <line style="fill:none;stroke:#000000;stroke-width:0.25;stroke-miterlimit:10;" x1="108" x2="108" y1="160" y2="-32"/>
              <line style="fill:none;stroke:#000000;stroke-width:0.25;stroke-miterlimit:10;" x1="112" x2="112" y1="160" y2="-32"/>
              <line style="fill:none;stroke:#000000;stroke-width:0.25;stroke-miterlimit:10;" x1="116" x2="116" y1="160" y2="-32"/>
              <line style="fill:none;stroke:#000000;stroke-width:0.25;stroke-miterlimit:10;" x1="120" x2="120" y1="160" y2="-32"/>
              <line style="fill:none;stroke:#000000;stroke-width:0.25;stroke-miterlimit:10;" x1="124" x2="124" y1="160" y2="-32"/>
              <line style="fill:none;stroke:#000000;stroke-width:0.25;stroke-miterlimit:10;" x1="128" x2="128" y1="160" y2="-32"/>
              <line style="fill:none;stroke:#000000;stroke-width:0.25;stroke-miterlimit:10;" x1="132" x2="132" y1="160" y2="-32"/>
              <line style="fill:none;stroke:#000000;stroke-width:0.25;stroke-miterlimit:10;" x1="136" x2="136" y1="160" y2="-32"/>
              <line style="fill:none;stroke:#000000;stroke-width:0.25;stroke-miterlimit:10;" x1="137" x2="137" y1="166.05" y2="-25.95"/>
              <line style="fill:none;stroke:#000000;stroke-width:0.25;stroke-miterlimit:10;" x1="144" x2="144" y1="160" y2="-32"/>
              <line style="fill:none;stroke:#000000;stroke-width:0.25;stroke-miterlimit:10;" x1="148" x2="148" y1="160" y2="-32"/>
              <line style="fill:none;stroke:#000000;stroke-width:0.25;stroke-miterlimit:10;" x1="152" x2="152" y1="160" y2="-32"/>
              <line style="fill:none;stroke:#000000;stroke-width:0.25;stroke-miterlimit:10;" x1="156" x2="156" y1="160" y2="-32"/>
            </g>
            <g>
              <line style="fill:none;stroke:#000000;stroke-width:0.25;stroke-miterlimit:10;" x1="-32" x2="160" y1="-28" y2="-28"/>
              <line style="fill:none;stroke:#000000;stroke-width:0.25;stroke-miterlimit:10;" x1="-32" x2="160" y1="-24" y2="-24"/>
              <line style="fill:none;stroke:#000000;stroke-width:0.25;stroke-miterlimit:10;" x1="-32" x2="160" y1="-20" y2="-20"/>
              <line style="fill:none;stroke:#000000;stroke-width:0.25;stroke-miterlimit:10;" x1="-32" x2="160" y1="-16" y2="-16"/>
              <line style="fill:none;stroke:#000000;stroke-width:0.25;stroke-miterlimit:10;" x1="-32" x2="160" y1="-12" y2="-12"/>
              <line style="fill:none;stroke:#000000;stroke-width:0.25;stroke-miterlimit:10;" x1="-32" x2="160" y1="-8" y2="-8"/>
              <line style="fill:none;stroke:#000000;stroke-width:0.25;stroke-miterlimit:10;" x1="-32" x2="160" y1="-4" y2="-4"/>
              <line style="fill:none;stroke:#000000;stroke-width:0.25;stroke-miterlimit:10;" x1="-32" x2="160" y1="0" y2="0"/>
              <line style="fill:none;stroke:#000000;stroke-width:0.25;stroke-miterlimit:10;" x1="-32" x2="160" y1="4" y2="4"/>
              <line style="fill:none;stroke:#000000;stroke-width:0.25;stroke-miterlimit:10;" x1="-32" x2="160" y1="8" y2="8"/>
              <line style="fill:none;stroke:#000000;stroke-width:0.25;stroke-miterlimit:10;" x1="-32" x2="160" y1="12" y2="12"/>
              <line style="fill:none;stroke:#000000;stroke-width:0.25;stroke-miterlimit:10;" x1="-32" x2="160" y1="16" y2="16"/>
              <line style="fill:none;stroke:#000000;stroke-width:0.25;stroke-miterlimit:10;" x1="-32" x2="160" y1="20" y2="20"/>
              <line style="fill:none;stroke:#000000;stroke-width:0.25;stroke-miterlimit:10;" x1="-32" x2="160" y1="24" y2="24"/>
              <line style="fill:none;stroke:#000000;stroke-width:0.25;stroke-miterlimit:10;" x1="-32" x2="160" y1="28" y2="28"/>
              <line style="fill:none;stroke:#000000;stroke-width:0.25;stroke-miterlimit:10;" x1="-32" x2="160" y1="32" y2="32"/>
              <line style="fill:none;stroke:#000000;stroke-width:0.25;stroke-miterlimit:10;" x1="-32" x2="160" y1="36" y2="36"/>
              <line style="fill:none;stroke:#000000;stroke-width:0.25;stroke-miterlimit:10;" x1="-32" x2="160" y1="40" y2="40"/>
              <line style="fill:none;stroke:#000000;stroke-width:0.25;stroke-miterlimit:10;" x1="-32" x2="160" y1="44" y2="44"/>
              <line style="fill:none;stroke:#000000;stroke-width:0.25;stroke-miterlimit:10;" x1="-32" x2="160" y1="48" y2="48"/>
              <line style="fill:none;stroke:#000000;stroke-width:0.25;stroke-miterlimit:10;" x1="-32" x2="160" y1="52" y2="52"/>
              <line style="fill:none;stroke:#000000;stroke-width:0.25;stroke-miterlimit:10;" x1="-32" x2="160" y1="56" y2="56"/>
              <line style="fill:none;stroke:#000000;stroke-width:0.25;stroke-miterlimit:10;" x1="-32" x2="160" y1="60" y2="60"/>
              <line style="fill:none;stroke:#000000;stroke-width:0.25;stroke-miterlimit:10;" x1="-32" x2="160" y1="64" y2="64"/>
              <line style="fill:none;stroke:#000000;stroke-width:0.25;stroke-miterlimit:10;" x1="-32" x2="160" y1="68" y2="68"/>
              <line style="fill:none;stroke:#000000;stroke-width:0.25;stroke-miterlimit:10;" x1="-32" x2="160" y1="72" y2="72"/>
              <line style="fill:none;stroke:#000000;stroke-width:0.25;stroke-miterlimit:10;" x1="-32" x2="160" y1="76" y2="76"/>
              <line style="fill:none;stroke:#000000;stroke-width:0.25;stroke-miterlimit:10;" x1="-32" x2="160" y1="80" y2="80"/>
              <line style="fill:none;stroke:#000000;stroke-width:0.25;stroke-miterlimit:10;" x1="-32" x2="160" y1="84" y2="84"/>
              <line style="fill:none;stroke:#000000;stroke-width:0.25;stroke-miterlimit:10;" x1="-32" x2="160" y1="88" y2="88"/>
              <line style="fill:none;stroke:#000000;stroke-width:0.25;stroke-miterlimit:10;" x1="-32" x2="160" y1="92" y2="92"/>
              <line style="fill:none;stroke:#000000;stroke-width:0.25;stroke-miterlimit:10;" x1="-32" x2="160" y1="96" y2="96"/>
              <line style="fill:none;stroke:#000000;stroke-width:0.25;stroke-miterlimit:10;" x1="-32" x2="160" y1="100" y2="100"/>
              <line style="fill:none;stroke:#000000;stroke-width:0.25;stroke-miterlimit:10;" x1="-32" x2="160" y1="104" y2="104"/>
              <line style="fill:none;stroke:#000000;stroke-width:0.25;stroke-miterlimit:10;" x1="-32" x2="160" y1="108" y2="108"/>
              <line style="fill:none;stroke:#000000;stroke-width:0.25;stroke-miterlimit:10;" x1="-32" x2="160" y1="112" y2="112"/>
              <line style="fill:none;stroke:#000000;stroke-width:0.25;stroke-miterlimit:10;" x1="-32" x2="160" y1="116" y2="116"/>
              <line style="fill:none;stroke:#000000;stroke-width:0.25;stroke-miterlimit:10;" x1="-32" x2="160" y1="120" y2="120"/>
              <line style="fill:none;stroke:#000000;stroke-width:0.25;stroke-miterlimit:10;" x1="-32" x2="160" y1="124" y2="124"/>
              <line style="fill:none;stroke:#000000;stroke-width:0.25;stroke-miterlimit:10;" x1="-32" x2="160" y1="128" y2="128"/>
              <line style="fill:none;stroke:#000000;stroke-width:0.25;stroke-miterlimit:10;" x1="-32" x2="160" y1="132" y2="132"/>
              <line style="fill:none;stroke:#000000;stroke-width:0.25;stroke-miterlimit:10;" x1="-32" x2="160" y1="136" y2="136"/>
              <line style="fill:none;stroke:#000000;stroke-width:0.25;stroke-miterlimit:10;" x1="-32" x2="160" y1="140" y2="140"/>
              <line style="fill:none;stroke:#000000;stroke-width:0.25;stroke-miterlimit:10;" x1="-32" x2="160" y1="144" y2="144"/>
              <line style="fill:none;stroke:#000000;stroke-width:0.25;stroke-miterlimit:10;" x1="-32" x2="160" y1="148" y2="148"/>
              <line style="fill:none;stroke:#000000;stroke-width:0.25;stroke-miterlimit:10;" x1="-32" x2="160" y1="152" y2="152"/>
              <line style="fill:none;stroke:#000000;stroke-width:0.25;stroke-miterlimit:10;" x1="-32" x2="160" y1="156" y2="156"/>
            </g>
            <path d="M159.75-31.75v191.5h-191.5v-191.5H159.75 M160-32H-32v192h192V-32L160-32z"/>
          </g>
        </g>
        <g>
          <rect height="128" style="opacity:0.3;fill:#F44336;" width="4"/>
          <rect height="128" style="opacity:0.3;fill:#F44336;" width="4" x="124"/>
          <rect height="120" style="opacity:0.3;fill:#F44336;" transform="matrix(-1.836970e-16 1 -1 -1.836970e-16 66 -62)" width="4" x="62" y="-58"/>
          <rect height="120" style="opacity:0.3;fill:#F44336;" transform="matrix(-1.836970e-16 1 -1 -1.836970e-16 190 62)" width="4" x="62" y="66"/>
        </g>
      </g>
    </g>
  </g>
</svg>
